teeny/outline/sort-alphabetically.svg

<svg width="15" height="15" viewBox="0 0 15 15" fill="none" xmlns="http://www.w3.org/2000/svg">
<path d="M3.5 14.5L3.14645 14.8536C3.24021 14.9473 3.36739 15 3.5 15C3.63261 15 3.75978 14.9473 3.85355 14.8536L3.5 14.5ZM9.5 8.5V8H9V8.5H9.5ZM9.5 14.5H9V15H9.5V14.5ZM3.85355 14.8536L6.85355 11.8536L6.14645 11.1464L3.14645 14.1464L3.85355 14.8536ZM3.85355 14.1464L0.853553 11.1464L0.146447 11.8536L3.14645 14.8536L3.85355 14.1464ZM3 0V14.5H4V0H3ZM9.5 9H12V8H9.5V9ZM12 11H9.5V12H12V11ZM10 11.5V8.5H9V11.5H10ZM13 10C13 10.5523 12.5523 11 12 11V12C13.1046 12 14 11.1046 14 10H13ZM12 9C12.5523 9 13 9.44772 13 10H14C14 8.89543 13.1046 8 12 8V9ZM12 14H9.5V15H12V14ZM10 14.5V11.5H9V14.5H10ZM13 13C13 13.5523 12.5523 14 12 14V15C13.1046 15 14 14.1046 14 13H13ZM12 12C12.5523 12 13 12.4477 13 13H14C14 11.8954 13.1046 11 12 11V12ZM10 7V2.5H9V7H10ZM13 2.5V7H14V2.5H13ZM11.5 1C12.3284 1 13 1.67157 13 2.5H14C14 1.11929 12.8807 0 11.5 0V1ZM10 2.5C10 1.67157 10.6716 1 11.5 1V0C10.1193 0 9 1.11929 9 2.5H10ZM9.5 5H13.5V4H9.5V5Z" fill="black"/>
</svg>

<svg viewBox="0 0 15 15" xmlns="http://www.w3.org/2000/svg"><path d="M3.5 14.5l-.36.35c.09.09.22.14.35.14 .13 0 .25-.06.35-.15l-.36-.36Zm6-6V8H9v.5h.5Zm0 6H9v.5h.5v-.5Zm-5.65.35l3-3 -.71-.71 -3 3 .7.7Zm-.001-.71l-3-3 -.71.7 3 3 .7-.71ZM2.989-.01v14.5h1V-.01h-1Zm6.5 9h2.5v-1h-2.5v1Zm2.5 2h-2.5v1h2.5v-1Zm-2 .5v-3h-1v3h1Zm3-1.5c0 .55-.45 1-1 1v1c1.1 0 2-.9 2-2h-1Zm-1-1c.55 0 1 .44 1 1h1c0-1.11-.9-2-2-2v1Zm0 5h-2.5v1h2.5v-1Zm-2 .5v-3h-1v3h1Zm3-1.5c0 .55-.45 1-1 1v1c1.1 0 2-.9 2-2h-1Zm-1-1c.55 0 1 .44 1 1h1c0-1.11-.9-2-2-2v1Zm-2-5v-4.5h-1v4.5h1Zm3-4.5v4.5h1v-4.5h-1Zm-1.5-1.5c.82 0 1.5.67 1.5 1.5h1c0-1.39-1.12-2.5-2.5-2.5v1Zm-1.5 1.5c0-.83.67-1.5 1.5-1.5v-1c-1.39 0-2.5 1.11-2.5 2.5h1Zm-.5 2.5h4v-1h-4v1Z"/></svg>
